X: 2406
T: NELLY BLY
R: Sand Jig.
%R: sand jig, hornpipe, march
B: James Kerr "Merry Melodies" v.2 p.45 #406
Z: 2016 John Chambers <jc:trillian.mit.edu>
M: C
L: 1/8
K: G
|:\
Bcd2 Bcd2 | Bcde A4 |\
Bcd2 efg2 | fgaf g2d2 ::\
b2 (3ggg g2e2 | dBBG A4 |\
Bcd2 efg2 | fgag g2d2 |\
b2 (3ggg g2e2 | dBBG A4 |\
Bcd2 efg2 | fgaf g2z2 :|
